human-male-female-child.svg

<svg fill="currentColor" viewBox="0 0 24 24"><path d="M16 4c0-1.1.9-2 2-2s2 .9 2 2-.9 2-2 2-2-.9-2-2m4 18v-6h2.5L20 8.4c-.3-.8-1-1.4-1.9-1.4H18c-.9 0-1.6.6-1.9 1.4l-.9 2.6c1.1.6 1.8 1.7 1.8 3.1V22zm-7.5-10.5c.8 0 1.5-.7 1.5-1.5s-.7-1.5-1.5-1.5S11 9.2 11 10s.7 1.5 1.5 1.5M5.5 6c1.1 0 2-.9 2-2s-.9-2-2-2-2 .9-2 2 .9 2 2 2m2 16v-7H9V9c0-1.1-.9-2-2-2H4c-1.1 0-2 .9-2 2v6h1.5v7zm6.5 0v-4h1v-4c0-.8-.7-1.5-1.5-1.5h-2c-.8 0-1.5.7-1.5 1.5v4h1v4z"/></svg>

<svg  viewBox="0 0 24 24" fill="currentColor"><path  d="M16 4C16 2.9 16.9 2 18 2S20 2.9 20 4 19.1 6 18 6 16 5.1 16 4M20 22V16H22.5L20 8.4C19.7 7.6 19 7 18.1 7H18C17.1 7 16.4 7.6 16.1 8.4L15.2 11C16.3 11.6 17 12.7 17 14.1V22H20M12.5 11.5C13.3 11.5 14 10.8 14 10S13.3 8.5 12.5 8.5 11 9.2 11 10 11.7 11.5 12.5 11.5M5.5 6C6.6 6 7.5 5.1 7.5 4S6.6 2 5.5 2 3.5 2.9 3.5 4 4.4 6 5.5 6M7.5 22V15H9V9C9 7.9 8.1 7 7 7H4C2.9 7 2 7.9 2 9V15H3.5V22H7.5M14 22V18H15V14C15 13.2 14.3 12.5 13.5 12.5H11.5C10.7 12.5 10 13.2 10 14V18H11V22H14Z"/></svg>
